!!!COM: Beethoven
!!!OTL: Six Variations on an Original Theme
!!!Variation: Variation 6 b2
**function	**harm	**kern	**kern
*M3/4	*M3/4	*staff1	*staff2
*D:	*D:	*clefG2	*clefF4
*tb16	*	*k[f#c#]	*k[f#c#]
*	*	*M3/4	*M3/4
*	*	*D:	*D:
4T	4vi	8b'L 8dd' 8bb'	16BBLL
.	.	.	16D
.	.	8cc#'J 8ee' 8ccc#'	16F#
.	.	.	16BJJ
=-	=-	=142	=142
2T	2vi	8dd'L 8ff#' 8ddd'	16BBLL
.	.	.	16D
.	.	8cc#'J 8ee' 8ccc#'	16F#
.	.	.	16BJJ
.	.	8dd'L 8ff#' 8ddd'	16BBLL
.	.	.	16D
.	.	8b'J 8dd' 8bb'	16F#
.	.	.	16BJJ
4T	4V7	8cc#'L 8ee' 8ccc#'	16AALL
.	.	.	16C#
.	.	8dd'J 8ff#' 8ddd'	16E
.	.	.	16GJJ
=	=	=143	=143
2.T	2.V7	8ee'L 8gg' 8eee'	16AALL
.	.	.	16C#
.	.	8dd'J 8ff#' 8ddd'	16E
.	.	.	16GJJ
.	.	8ee'L 8gg' 8eee'	16AALL
.	.	.	16C#
.	.	8cc#'J 8ee' 8ccc#'	16E
.	.	.	16GJJ
.	.	8dd'L 8ff#' 8ddd'	16AALL
.	.	.	16C#
.	.	8ee'J 8gg' 8eee'	16E
.	.	.	16GJJ
=	=	=144	=144
2.T	2.V7	8ee'L 8gg' 8eee'	16AALL
.	.	.	16C#
.	.	8dd'J 8ff#' 8ddd'	16E
.	.	.	16GJJ
.	.	8ee'L 8gg' 8eee'	16AALL
.	.	.	16C#
.	.	8cc#'J 8ee' 8ccc#'	16E
.	.	.	16GJJ
.	.	8dd'L 8ff#' 8ddd'	16AALL
.	.	.	16C#
.	.	8ee'J 8gg' 8eee'	16E
.	.	.	16GJJ
=	=	=145	=145
2.T	2.I	8ff#'L 8aa' 8fff#'	16DDLL
.	.	.	16FF#
.	.	8ee'J 8gg' 8eee'	16AA
.	.	.	16DJJ
.	.	8ff#'L 8aa' 8fff#'	16DDLL
.	.	.	16FF#
.	.	8dd'J 8ff#' 8ddd'	16AA
.	.	.	16DJJ
.	.	8ee'L 8gg' 8eee'	16DDLL
.	.	.	16FF#
.	.	8ff#'J 8aa' 8fff#'	16AA
.	.	.	16DJJ
=	=	=146	=146
2.T	2.I	8ff#'L 8aa' 8fff#'	16DDLL
.	.	.	16FF#
.	.	8dd'J 8ff#' 8ddd'	16AA
.	.	.	16DJJ
.	.	8dd'L 8ff#' 8ddd'	16DDLL
.	.	.	16FF#
.	.	8dd'J 8ff#' 8ddd'	16AA
.	.	.	16DJJ
.	.	8dd'L 8ff#'	16DDLL
.	.	.	16FF#
.	.	8ee'J 8gg'	16AA
.	.	.	16DJJ
=	=	=147	=147
2.T	2.I	8ff#'L 8aa'	16DDLL
.	.	.	16FF#
.	.	8dd'J 8ff#'	16AA
.	.	.	16DJJ
.	.	8dd'L 8ff#'	16DDLL
.	.	.	16FF#
.	.	8dd'J 8ff#'	16AA
.	.	.	16DJJ
.	.	8dd'L 8ff#' 8ddd'	16DDLL
.	.	.	16D
.	.	8ff#'J 8fff#'	16DD
.	.	.	16DJJ
=	=	=148	=148
4.P	4.ii	8ee'L 8eee'	16EELL
.	.	.	16E
.	.	8dd'J 8ddd'	16FF#
.	.	.	16F#JJ
.	.	8cc#'L 8ccc#'	16GGLL
.	.	.	16G
8P	8viio/V	8b'J 8bb'	16GG#
.	.	.	16G#JJ
4D	4V	8a'L 8aa'	16AALL
.	.	.	16A
.	.	8cc#'J 8ee' 8ccc#'	16AA
.	.	.	16AJJ
=	=	=149	=149
2.T	2.I	4dd 4ff# 4ddd	4DD 4D
.	.	4r	4r
.	.	8f#'L 8a' 8dd'	8D'L
.	.	8a'J 8ff#'	8D'J
=	=	=150	=150
4.T	4.ii	8g'L 8ee'	8E'L
.	.	8f#'J 8dd'	8F#'J
.	.	8e'L 8cc#'	8G'L
8T	8viio/V	8d'J 8b'	8G#'J
4T	4V7	8c#'L 8a'	8A'L
.	.	8e'J 8g' 8cc#'	8AA'J
=	=	=151	=151
2.T	2.I	4d 4f# 4dd	4D
.	.	4r	4r
.	.	4ff#' 4fff#'	4F#' 4f#'
=	=	=152	=152
2.T	2.I	4r	2.r
.	.	4r	.
.	.	4f#	.
=	=	=153	=153
2.T	2.I	4r	2.r
.	.	4r	.
.	.	4f#	.
=	=	=154||	=154||
*-	*-	*-	*-
